X:1
T:Steamin' Blues
C: Joseph "Shotgun Joe" Williams
F:https://www.youtube.com/watch?v=ADg4TTy7sl8
M:4/4
L:1/8
Q:1/4=100
R:Second line
K:Ab
A ||"Ab" =Bc z2 z4| z4 c/2d/2e/2c/2 A/2_G/2E/2D/2 | C/2A3/2-A2 z E F_G-|"Ab7"G4 A2 B2|
"Db" =B2 z2 z4 | z4 z2 z =B |"Ab" c=B c2 A_BA_G-|G4 z3 A |
"Eb7" BBBB GE z2 | "Db" FAAF =B_B A/2BA/2 | "Ab7" z2 EE =DD_DB, | CA-A4 z2 |]